src/assets/icons/weeks,simple,25.svg

<svg width="48" height="48" viewBox="0 0 48 48" fill="none" xmlns="http://www.w3.org/2000/svg">
<rect opacity="0.2" x="5" y="5" width="38" height="38" rx="4" fill="black"/>
<path d="M5 13C5 9.22876 5 7.34315 6.17157 6.17157C7.34315 5 9.22876 5 13 5H35C38.7712 5 40.6569 5 41.8284 6.17157C43 7.34315 43 9.22876 43 13V15H5V13Z" fill="black"/>
<path d="M10.1218 38H22.565V34.983H15.2354V34.8636L17.7837 32.3665C21.3718 29.0938 22.3349 27.4574 22.3349 25.4716C22.3349 22.446 19.8633 20.3068 16.1218 20.3068C12.457 20.3068 9.94283 22.4972 9.95135 25.9233H13.4542C13.4457 24.2528 14.5025 23.2301 16.0962 23.2301C17.6303 23.2301 18.7724 24.1847 18.7724 25.7188C18.7724 27.108 17.9201 28.0625 16.3349 29.5881L10.1218 35.3409V38ZM31.614 38.2386C35.5004 38.2386 38.1424 35.7074 38.1339 32.179C38.1424 28.8381 35.8072 26.4347 32.6623 26.4347C31.1282 26.4347 29.8072 27.0739 29.1935 27.9347H29.0913L29.543 23.5625H37.1708V20.5455H26.5004L25.6737 29.75L28.9549 30.3381C29.4918 29.6136 30.5316 29.1619 31.5629 29.1619C33.3185 29.1705 34.5799 30.4403 34.5799 32.2727C34.5799 34.0881 33.3441 35.3409 31.614 35.3409C30.1481 35.3409 28.9634 34.4205 28.8782 33.0653H25.2987C25.3668 36.0824 28.0004 38.2386 31.614 38.2386Z" fill="black"/>
</svg>

<svg xmlns="http://www.w3.org/2000/svg" width="48" height="48" fill="none" viewBox="0 0 48 48">
  <rect width="38" height="38" x="5" y="5" fill="#000" opacity=".2" rx="4"/>
  <path fill="#000" d="M5 13c0-3.771 0-5.657 1.172-6.828C7.343 5 9.229 5 13 5h22c3.771 0 5.657 0 6.828 1.172C43 7.343 43 9.229 43 13v2H5v-2zM10.122 38h12.443v-3.017h-7.33v-.12l2.549-2.496c3.588-3.273 4.55-4.91 4.55-6.895 0-3.026-2.47-5.165-6.212-5.165-3.665 0-6.18 2.19-6.17 5.616h3.502c-.008-1.67 1.048-2.693 2.642-2.693 1.534 0 2.676.955 2.676 2.489 0 1.389-.852 2.343-2.437 3.87l-6.213 5.752V38zm21.492.239c3.886 0 6.528-2.532 6.52-6.06.008-3.34-2.327-5.744-5.472-5.744-1.534 0-2.855.639-3.468 1.5h-.103l.452-4.372h7.628v-3.017H26.5l-.827 9.204 3.28.588c.538-.724 1.578-1.176 2.609-1.176 1.756.009 3.017 1.278 3.017 3.11 0 1.816-1.236 3.069-2.966 3.069-1.466 0-2.65-.92-2.736-2.276h-3.58c.069 3.017 2.702 5.174 6.316 5.174z"/>
</svg>
